X:47
T:Merrily Kiss the Quaker
B:Terry "Cuz" Teahan "Sliabh Luachra on Parade" 1980
Z:Patrick Cavanagh
M:12/8
L:1/8
R:Slide
K:A
| ABc E2E cBA BAF | ABc E2E cec BAF | 
ABc E2E cBA BAF | ABc E2F A3 A3 :| 
| ABc ece f2c ecB | ABc e2c BcB BAF | 
ABc ece f2c ecB | ABc E2F A3 A3 :|| 

